svg/folder_arrow_up.svg

<svg xmlns="http://www.w3.org/2000/svg" viewBox="0 0 24 24"><path d="M22 8v5.81c-.88-.51-1.9-.81-3-.81-3.31 0-6 2.69-6 6 0 .34.04.67.09 1H4a2 2 0 0 1-2-2V6c0-1.11.89-2 2-2h6l2 2h8a2 2 0 0 1 2 2m-6 10h2v4h2v-4h2l-3-3z"/></svg>

<svg xmlns="http://www.w3.org/2000/svg" id="mdi-folder-arrow-up" viewBox="0 0 24 24"><path d="M22 8V13.81C21.12 13.3 20.1 13 19 13C15.69 13 13 15.69 13 19C13 19.34 13.04 19.67 13.09 20H4C2.9 20 2 19.11 2 18V6C2 4.89 2.89 4 4 4H10L12 6H20C21.1 6 22 6.89 22 8M16 18H18V22H20V18H22L19 15L16 18Z" /></svg>
